X:8
T:Midnattssolen (med exempel på kommentarer)
C:Hasse Gille
C:Renskriven av Sture Skogh efter Hasses egen handskrift
N:Not från Lena Höög avskriven
N:http://www.concertina.net/tunes_convert.html
Z:Renskriven i mars 2014 av Sture Skogh efter Hasses egen handskrift
M:3/4
L:1/8
K:G
B|:dc BD GB|dcB2BB|dc BD GB|cBA3A|cB AD FA|cBA2AA|cB AD (3DEF|G2G4:|
c|:ed cE Gc|ed c2cc|dc BD GB|dcB2BB|cB AD FA|cBA2AA|cB AD (3DEF|G2G4:|
T:Renskriven av Sture Skogh efter  Hasses egen handskrift
